storage/app/icons/phosphoricons/bold/high-definition-bold.svg

<svg xmlns="http://www.w3.org/2000/svg" fill="currentColor" viewBox="0 0 256 256"><path d="M180 68h-24a12 12 0 0 0-12 12v96a12 12 0 0 0 12 12h24a60 60 0 0 0 0-120m0 96h-12V92h12a36 36 0 0 1 0 72m-76 12v-36H56v36a12 12 0 0 1-24 0V80a12 12 0 0 1 24 0v36h48V80a12 12 0 0 1 24 0v96a12 12 0 0 1-24 0M20 44a12 12 0 0 1 12-12h192a12 12 0 0 1 0 24H32a12 12 0 0 1-12-12m216 168a12 12 0 0 1-12 12H32a12 12 0 0 1 0-24h192a12 12 0 0 1 12 12"/></svg>

<svg xmlns="http://www.w3.org/2000/svg" viewBox="0 0 256 256" fill="currentColor"><path d="M180,68H156a12,12,0,0,0-12,12v96a12,12,0,0,0,12,12h24a60,60,0,0,0,0-120Zm0,96H168V92h12a36,36,0,0,1,0,72Zm-76,12V140H56v36a12,12,0,0,1-24,0V80a12,12,0,0,1,24,0v36h48V80a12,12,0,0,1,24,0v96a12,12,0,0,1-24,0ZM20,44A12,12,0,0,1,32,32H224a12,12,0,0,1,0,24H32A12,12,0,0,1,20,44ZM236,212a12,12,0,0,1-12,12H32a12,12,0,0,1,0-24H224A12,12,0,0,1,236,212Z"/></svg>
